X:19
T: MEIN SCHATZ ICH HAB ERFAHREN
N: E0635
O: Europa, Mitteleuropa, Deutschland, Schlesien, Hainau
R: Liebes - Lied
M: 6/8
L: 1/16
K: A
E2 | A4A2G2F2G2 | A6E4
E2 | =F4E2D3=CD2 | E6z4
E2 | E4D2=C2C2D2 | E6E4
E2 | A4A2G2A2B2 | =c4B2A4
A2 | E4E2E4E2 | A6z4

@@@ Tune index: 4332
